svg/babys_room.svg

<svg xmlns="http://www.w3.org/2000/svg" viewBox="0 0 32 32" enable-background="new 0 0 32 32"><path d="M 12 3 L 12 5 C 13.495667 5 14.297611 5.5199277 14.6875 6.09375 C 10.403684 6.6753165 7.0225729 10.041768 6.28125 14.3125 C 5.0242529 14.66998 4 15.635076 4 17 C 4 18.364924 5.0242529 19.33002 6.28125 19.6875 C 7.0972917 24.388684 11.101371 28 16 28 C 20.898629 28 24.902708 24.388684 25.71875 19.6875 C 26.975747 19.33002 28 18.364924 28 17 C 28 15.680715 27.037056 14.740802 25.84375 14.34375 C 25.09334 10.386032 22.126239 7.2020012 18.28125 6.28125 C 18.412473 6.1105331 18.54746 6 19 6 L 19 4 C 17.908333 4 17.046467 4.5461513 16.59375 5.1875 C 16.5649 5.2283703 16.557612 5.2716029 16.53125 5.3125 C 15.791395 4.0069192 14.201818 3 12 3 z M 16 8 C 20.092754 8 23.464126 11.105945 24 15.125 L 24.125 16 L 25 16 C 25.554545 16 26 16.445455 26 17 C 26 17.554545 25.554545 18 25 18 L 24.90625 18 L 24 18 L 23.90625 18.875 C 23.461376 22.878866 20.092754 26 16 26 C 11.907246 26 8.538624 22.878866 8.09375 18.875 L 8 18 L 7.09375 18 L 7 18 C 6.4454545 18 6 17.554545 6 17 C 6 16.445455 6.4454545 16 7 16 L 7.09375 16 L 8 16 L 8.09375 15.125 C 8.538624 11.121134 11.907246 8 16 8 z M 12.5 16 C 11.671573 16 11 16.671573 11 17.5 C 11 18.328427 11.671573 19 12.5 19 C 13.328427 19 14 18.328427 14 17.5 C 14 16.671573 13.328427 16 12.5 16 z M 19.5 16 C 18.671573 16 18 16.671573 18 17.5 C 18 18.328427 18.671573 19 19.5 19 C 20.328427 19 21 18.328427 21 17.5 C 21 16.671573 20.328427 16 19.5 16 z"/></svg>

<svg xmlns="http://www.w3.org/2000/svg" viewBox="0 0 32 32"><path d="M12 3v2c1.496 0 2.298.52 2.688 1.094-4.284.58-7.665 3.948-8.407 8.218C5.025 14.67 4 15.636 4 17c0 1.365 1.024 2.33 2.28 2.688C7.098 24.387 11.1 28 16 28s8.903-3.61 9.72-8.313C26.975 19.33 28 18.366 28 17c0-1.32-.963-2.26-2.156-2.656-.75-3.958-3.718-7.142-7.563-8.063.132-.17.267-.28.72-.28V4c-1.092 0-1.954.546-2.406 1.188-.03.04-.036.084-.063.125C15.79 4.006 14.203 3 12 3zm4 5c4.093 0 7.464 3.106 8 7.125l.125.875H25c.555 0 1 .445 1 1 0 .555-.445 1-1 1h-1l-.094.875C23.46 22.88 20.093 26 16 26s-7.46-3.12-7.906-7.125L8 18H7c-.555 0-1-.445-1-1 0-.555.445-1 1-1h1l.094-.875C8.54 11.12 11.907 8 16 8zm-3.5 8c-.828 0-1.5.672-1.5 1.5s.672 1.5 1.5 1.5 1.5-.672 1.5-1.5-.672-1.5-1.5-1.5zm7 0c-.828 0-1.5.672-1.5 1.5s.672 1.5 1.5 1.5 1.5-.672 1.5-1.5-.672-1.5-1.5-1.5z"/></svg>
